X:297
%%etbk:tnset id:92,pos:2,rep:3x,ant:
%%etbk:wsite http://www.thesession.org/tunes/display/3119
T: Fairhaired Boy, The
Z: Piano Box Version by Martin Fleischmann
H: Created 2013-02-19 /  Last Modified 2013-02-19
M: 6/8
L: 1/8
R: jig
K: Ador
|: "am"!1!E2!2!A {c}!2!A!1!GA | "G"!3!B!4!d!2!d !2!d!1!Bd | !3!e!5!ge !2!d!1!B!2!G | !4!BAB !2!G!1!E!2!D |
"am"!1!E2!2!A {c}!2!A!1!GA | "G"!3!B!4!d!2!d !2!d!1!Bd | !3!e!5!ge !2!d!1!B!2!G |1 !4!BA!2!G "am"!3!A2!2!G:|2 !4!BA!2!G "am"!3!A2!1!A||
"am"!2!e2!4!a aba | "G"!2!e{g}e!4!g ga!4!g | !3!e!5!ge !2!d!1!B!2!G | !4!BAB !2!G2!1!G |
"am"!2!e2!4!a aba | "G"!2!e{g}e!4!g ga!4!g | !3!e!5!ge !2!d!1!B!2!G  | !4!BA!2!G "am"!3!A2!1!A |
"am"!2!e2!4!a aba | "G"!2!e{g}e!4!g ga!4!g | !3!e!5!ge !2!d!1!B!2!G  | !4!BAB !2!G!1!E!2!D |
"am"!1!E2!2!A {c}!2!AGA | "G"!3!B!4!d!2!d !2!d!1!Bd | !3!e!5!ge !2!d!1!B!2!G | !4!BA!2!G "am"!3!A3||


